X: 17886
T: Horseshoe Bay
R: slip jig
M: 9/8
K: Adorian
|:ADD ABc BAG|ADD ABA GFG|
ADD ABc Bcd|1 edc BcB A2 G:|2 edc BcB A2 B||
|:cBc cde dcB|ABA ABA GAB|
cBc cde ged|1 eAA ABG A2 B:|2 eAA ABG A2 G||

